X: 37213
T: Sirkkojen Tanssi
R: barndance
M: 4/4
K: Aminor
A>EA>B c>Ac>d|e>ce>a c'>ba>g|f3 f/e/ d>ef>a|e4e>ef>e|
e2 d2 d2 E/A/c/e/|d2 c2 c2 B/^A/=A/B/|B3 B c>B^A>B|e2 ^d/e/f e>=dc>B|
(3ABE A>B (3cdA c>d|(3efc e>a c'>ba>g|f3 f/4g/4e/ d>ef>a|e4e>ef>e|
e2 d2 d2 E/A/c/e/|d2 c2 c2 B/^A/=A/B/|B>cB>A ^G>Be<G|.A2 .c2 .A2 z2:|
|:^G3 A B>EG>B|A>Bc>d e3 z|^d3 e ^f>Bd>f|.e2 .^f2 ^g3 z|
(3ae^c (3Ace a>=g=f>e|g2 f2f z e/^f/g|(3gec (3Gce g>=fe>d|f2 e2e2 E/^F/^G/B/|
^G3 A B>EG>B|A>^GA>B c>Bc>d|e2 e/f/g/f/ e>dc>B|.A2 .c2 .A2 z2:|

